X:224
T:The Longford Collector
R:reel
M:4/4
L:1/8
K:G
|: G3A Bcdg | eB3 eBdB | G3A B2dB | ABBA GEDE |
G3A Bcdg | eB3 d2ef | g3f gedB |1 ABBA GEDE :|2 ABBA GEED |:
g3f gedg | eB3 d2ef | g2gf gedB | ABBA GEED |
g3f gedg | eB3 d2ef | gbaf gedB |1 ABBA GEED :|2 ABBA GEDE |]
